src/assets/svg/icons/fa/nuevos/classic/duotone/person-harassing classic duotone.svg

<svg xmlns="http://www.w3.org/2000/svg" viewBox="0 0 576 512"><!--! Font Awesome Pro 6.4.0 by @fontawesome - https://fontawesome.com License - https://fontawesome.com/license (Commercial License) Copyright 2023 Fonticons, Inc. --><defs><style>.fa-secondary{opacity:.4}</style></defs><path class="fa-primary" d="M144 48a48 48 0 1 1 96 0 48 48 0 1 1 -96 0zM88 256.9L59.4 304.5c-9.1 15.1-28.8 20-43.9 10.9s-20-28.8-10.9-43.9l58.3-97c17.4-28.9 48.6-46.6 82.3-46.6H181c28.6 0 55.6 12.7 73.9 34.7l73.7 88.9c11.3 13.6 9.4 33.8-4.2 45.1s-33.8 9.4-45.1-4.2L232 235.3V480c0 17.7-14.3 32-32 32s-32-14.3-32-32V352H152V480c0 17.7-14.3 32-32 32s-32-14.3-32-32V256.9zM288 48c0-8.8 7.2-16 16-16h56c8.8 0 16 7.2 16 16s-7.2 16-16 16H304c-8.8 0-16-7.2-16-16zm-.8 49.7l48 24c7.9 4 11.1 13.6 7.2 21.5s-13.6 11.1-21.5 7.2l-48-24c-7.9-4-11.1-13.6-7.2-21.5s13.6-11.1 21.5-7.2z"/><path class="fa-secondary" d="M432 288a48 48 0 1 0 0-96 48 48 0 1 0 0 96zm88 0c-30.9 0-56 25.1-56 56v58.7l-41.4-41.4c-7.3-7.3-17.6-10.6-27.8-9s-18.9 8.1-23.5 17.3l-48 96c-7.9 15.8-1.5 35 14.3 42.9s35 1.5 42.9-14.3L408.8 438l54.7 54.7c12.4 12.4 29.1 19.3 46.6 19.3c36.4 0 65.9-29.5 65.9-65.9V344c0-30.9-25.1-56-56-56z"/></svg>

<svg xmlns="http://www.w3.org/2000/svg" viewBox="0 0 576 512"><defs><style>.fa-secondary{opacity:.4}</style></defs><path class="fa-primary" d="M240 48C240 74.51 218.5 96 192 96C165.5 96 144 74.51 144 48C144 21.49 165.5 0 192 0C218.5 0 240 21.49 240 48zM88 256.9L59.43 304.5C50.33 319.6 30.67 324.5 15.52 315.4C.3696 306.3-4.531 286.7 4.573 271.5L62.85 174.6C80.2 145.7 111.4 128 145.1 128H181C209.6 128 236.7 140.7 254.9 162.7L328.6 251.6C339.9 265.2 338 285.3 324.4 296.6C310.8 307.9 290.7 306 279.4 292.4L232 235.3V480C232 497.7 217.7 512 200 512C182.3 512 168 497.7 168 480V352H152V480C152 497.7 137.7 512 120 512C102.3 512 88 497.7 88 480L88 256.9zM288 48C288 39.16 295.2 32 304 32H360C368.8 32 376 39.16 376 48C376 56.84 368.8 64 360 64H304C295.2 64 288 56.84 288 48zM335.2 121.7C343.1 125.6 346.3 135.3 342.3 143.2C338.4 151.1 328.7 154.3 320.8 150.3L272.8 126.3C264.9 122.4 261.7 112.7 265.7 104.8C269.6 96.94 279.3 93.74 287.2 97.69L335.2 121.7z"/><path class="fa-secondary" d="M384 240C384 213.5 405.5 192 432 192C458.5 192 480 213.5 480 240C480 266.5 458.5 288 432 288C405.5 288 384 266.5 384 240zM576 344V446.1C576 482.5 546.5 512 510.1 512C492.6 512 475.8 505.1 463.4 492.7L408.8 438L380.6 494.3C372.7 510.1 353.5 516.5 337.7 508.6C321.9 500.7 315.5 481.5 323.4 465.7L371.4 369.7C375.1 360.5 384.7 354.1 394.9 352.4C405 350.8 415.4 354.1 422.6 361.4L464 402.7V344C464 313.1 489.1 288 520 288C550.9 288 576 313.1 576 344z"/></svg>
